svg/u1f578.svg

<svg viewBox="0 0 128 128" xmlns="http://www.w3.org/2000/svg">
  <polygon fill="#5E6367" points="13.17,89.19 114.25,32.88 115.66,38.23 14.86,93.7 "/>
  <polygon fill="#5E6367" points="13.74,38.51 113.97,94.54 114.82,89.47 12.89,32.74 "/>
  <polygon fill="#5E6367" points="66.81,12.19 61.32,12.89 61.32,116.79 66.39,116.08 "/>
  <path d="M90.46,64.42c-0.14-6.19,2.15-13.45,0.99-15.35c-1.13-1.83-9.43-4.36-14.22-7.04 c-3.96-2.21-10.42-9.53-13.37-9.29c-3.52,0.28-7.18,6.19-12.95,9.43c-5.77,3.24-12.6,3.82-14.08,6.62 c-1.27,2.39,0.84,9.29,0.99,14.5c0.21,7.74-2.11,14.64-0.99,16.33c1.13,1.69,8.27,2.73,13.51,6.05c5.77,3.66,10.98,9.29,13.66,9.29 s8.35-6.8,14.08-9.57c4.36-2.11,11.4-5.21,13.23-6.9C93.13,76.8,90.62,71.31,90.46,64.42z M86.24,75.54 c-0.99,1.13-7.14,4.4-11.12,6.48c-3.52,1.83-8.59,6.62-11.4,6.76c-2.96,0.14-7.35-4.32-10.56-6.34c-3.8-2.39-10.96-4.51-11.68-6.19 c-0.84-1.97,0.7-9.43,0.7-13.94c0-3.8-1.27-9.85-0.42-11.4c0.84-1.55,7.6-3.24,11.68-5.49c4.93-2.72,7.88-6.34,10.56-6.34 c2.53,0,6.76,4.08,10.7,6.34c4.49,2.56,10.56,5.21,11.54,6.9c0.99,1.69-0.14,7.74,0,11.68C86.39,68.35,87.22,74.41,86.24,75.54z" fill="#5E6367"/>
  <path d="M112.42,62.16c0.96-13.48,6.48-22.67,7.32-24.21s3.05-3.75,1.74-6.29c-1.24-2.39-4.5-1.6-7.51-1.6 c-2.07,0-17.3-1.17-25.62-4.93c-8.73-3.94-17.46-11.97-19.01-14.92s-2.96-5.63-5.35-5.77c-2.67-0.16-4.5,3.8-5.63,6.19 c-1.13,2.39-8.17,9.43-16.61,13.66c-9.01,4.51-24.07,6.34-27.31,6.48c-2.69,0.12-6.34-0.42-7.46,1.83 c-0.96,1.92,1.45,4.72,2.82,7.04c1.41,2.39,6.34,13.23,6.05,24.64c-0.33,13.23-5.91,22.38-7.04,24.21 c-1.13,1.83-3.96,4.56-2.39,7.27c1.41,2.44,4.5,1.74,7.04,1.6c3.12-0.17,17.88,0.84,26.47,5.07c7.12,3.5,14.5,10.7,17.46,14.08 s4.04,6.38,6.76,6.34c3.28-0.06,4.22-3.8,6.01-6.34c1.22-1.73,9.2-10.7,18.77-14.92c7.09-3.13,22.24-4.3,23.79-4.36 c3.24-0.14,7.18,0.7,8.31-1.55c1.13-2.25-1.65-5.58-2.53-7.04C116.08,84.69,111.58,73.99,112.42,62.16z M110.45,90.04 c-2.51,3.77-14.78,2.53-24.5,7.04c-9.82,4.55-16.9,15.32-21.82,15.49c-4.22,0.14-12.11-11.12-22.1-15.34 c-10.61-4.48-24.35-4.08-25.9-7.18c-1.55-3.1,5.63-13.51,5.35-26.04c-0.27-11.97-6.5-23.62-4.5-26.61 c1.97-2.96,18.02-3.52,26.61-7.46c7.11-3.26,17.46-14.08,20.55-14.08c3.66,0,12.33,9.19,19.99,13.28c7.65,4.08,24.35,6.15,26.19,9.1 c1.83,2.96-4.05,15.2-3.94,25.34C106.51,76.66,112.42,87.08,110.45,90.04z" fill="#5E6367"/>
</svg>

<svg viewBox="0 0 128 128" xmlns="http://www.w3.org/2000/svg">
  <defs/>
  <path d="M13.17,89.19 L114.25,32.88 L115.66,38.23 L14.86,93.7 Z" fill="#5E6367"/>
  <path d="M13.74,38.51 L113.97,94.54 L114.82,89.47 L12.89,32.74 Z" fill="#5E6367"/>
  <path d="M66.81,12.19 L61.32,12.89 L61.32,116.79 L66.39,116.08 Z" fill="#5E6367"/>
  <path d="M90.46,64.42 C90.32,58.23 92.61,50.97 91.45,49.07 C90.32,47.24 82.02,44.71 77.23,42.03 C73.27,39.82 66.81,32.5 63.86,32.74 C60.34,33.02 56.68,38.93 50.91,42.17 C45.14,45.41 38.31,45.99 36.83,48.79 C35.56,51.18 37.67,58.08 37.82,63.29 C38.03,71.03 35.71,77.93 36.83,79.62 C37.96,81.31 45.1,82.35 50.34,85.67 C56.11,89.33 61.32,94.96 64,94.96 C66.68,94.96 72.35,88.16 78.08,85.39 C82.44,83.28 89.48,80.18 91.31,78.49 C93.13,76.8 90.62,71.31 90.46,64.42 Z M86.24,75.54 C85.25,76.67 79.1,79.94 75.12,82.02 C71.6,83.85 66.53,88.64 63.72,88.78 C60.76,88.92 56.37,84.46 53.16,82.44 C49.36,80.05 42.2,77.93 41.48,76.25 C40.64,74.28 42.18,66.82 42.18,62.31 C42.18,58.51 40.91,52.46 41.76,50.91 C42.6,49.36 49.36,47.67 53.44,45.42 C58.37,42.7 61.32,39.08 64,39.08 C66.53,39.08 70.76,43.16 74.7,45.42 C79.19,47.98 85.26,50.63 86.24,52.32 C87.23,54.01 86.1,60.06 86.24,64 C86.39,68.35 87.22,74.41 86.24,75.54 Z" fill="#5E6367"/>
  <path d="M112.42,62.16 C113.38,48.68 118.9,39.49 119.74,37.95 C120.58,36.41 122.79,34.2 121.48,31.66 C120.24,29.27 116.98,30.06 113.97,30.06 C111.9,30.06 96.67,28.89 88.35,25.13 C79.62,21.19 70.89,13.16 69.34,10.21 C67.79,7.26 66.38,4.58 63.99,4.44 C61.32,4.28 59.49,8.24 58.36,10.63 C57.23,13.02 50.19,20.06 41.75,24.29 C32.74,28.8 17.68,30.63 14.44,30.77 C11.75,30.89 8.1,30.35 6.98,32.6 C6.02,34.52 8.43,37.32 9.8,39.64 C11.21,42.03 16.14,52.87 15.85,64.28 C15.52,77.51 9.94,86.66 8.81,88.49 C7.68,90.32 4.85,93.05 6.42,95.76 C7.83,98.2 10.92,97.5 13.46,97.36 C16.58,97.19 31.34,98.2 39.93,102.43 C47.05,105.93 54.43,113.13 57.39,116.51 C60.35,119.89 61.43,122.89 64.15,122.85 C67.43,122.79 68.37,119.05 70.16,116.51 C71.38,114.78 79.36,105.81 88.93,101.59 C96.02,98.46 111.17,97.29 112.72,97.23 C115.96,97.09 119.9,97.93 121.03,95.68 C122.16,93.43 119.38,90.1 118.5,88.64 C116.08,84.69 111.58,73.99 112.42,62.16 Z M110.45,90.04 C107.94,93.81 95.67,92.57 85.95,97.08 C76.13,101.63 69.05,112.4 64.13,112.57 C59.91,112.71 52.02,101.45 42.03,97.23 C31.42,92.75 17.68,93.15 16.13,90.05 C14.58,86.95 21.76,76.54 21.48,64.01 C21.21,52.04 14.98,40.39 16.98,37.4 C18.95,34.44 35,33.88 43.59,29.94 C50.7,26.68 61.05,15.86 64.14,15.86 C67.8,15.86 76.47,25.05 84.13,29.14 C91.78,33.22 108.48,35.29 110.32,38.24 C112.15,41.2 106.27,53.44 106.38,63.58 C106.51,76.66 112.42,87.08 110.45,90.04 Z" fill="#5E6367"/>
</svg>
